X: 2594
T: Balmoral
R: waltz
M: 3/4
K: Amixolydian
A>B|c2 e2 A>B|c4 BA|B4 c/B/A/B/|c4 A>B|
c2 e2 A>B|c4 BA|B2 d2 c>B|A4:|
d>e|f2 a2 g>f|e4 dc|B4 c/B/A/B/|c4 d>e|
f2 a2 g>f|e4 dc|B2 d2 c>B|A4:|

